X:222
T:Delia Crowley's
R:reel
Z:transcribed by Dave Marshall
M:C|
K:D
| B2AG FDD2 | FDAD FDD2 | B2AG FDDF | ~E3D EFGA |
B2AG FDD2 | FDAD FDD2 | B2AG FDDF | ~E3D EFGA |
| ~d3f afdf | g2fg eBBA | ~d3f afdf | gefd e2fe |
defg afdf | g2fg eBBA | ~B3A Bcde | fdeg fdcA |
